src/assets/icons/profile.svg

<?xml version="1.0" encoding="UTF-8"?>
<svg fill="none" viewBox="0 0 50 50" xmlns="http://www.w3.org/2000/svg">
<path d="m25 4.1667c-11.506 0-20.833 9.3274-20.833 20.833 0 5.3571 2.0203 10.241 5.345 13.934 1.7386-3.329 5.2223-5.6007 9.2383-5.6007h12.5c4.016 0 7.4996 2.2717 9.2383 5.6007 3.3246-3.6928 5.345-8.5769 5.345-13.934 0-11.506-9.3275-20.833-20.833-20.833zm12.215 37.712c-0.7948-2.5368-3.1662-4.3783-5.9654-4.3783h-12.5c-2.7991 0-5.1705 1.8415-5.9654 4.3783 3.432 2.4888 7.6501 3.955 12.215 3.955 4.5652 0 8.7833-1.4662 12.215-3.955zm-37.215-16.878c0-13.807 11.193-25 25-25s25 11.193 25 25c0 7.7956-3.5704 14.759-9.1575 19.34-4.3121 3.5358-9.8321 5.6596-15.842 5.6596-6.0105 0-11.53-2.1238-15.842-5.6596-5.587-4.5814-9.1575-11.545-9.1575-19.34zm25-10.417c-3.4813 0-6.2875 2.8071-6.2875 6.25s2.8062 6.25 6.2875 6.25c3.4812 0 6.2875-2.8071 6.2875-6.25s-2.8063-6.25-6.2875-6.25zm-10.454 6.25c0-5.7617 4.6892-10.417 10.454-10.417 5.7648 0 10.454 4.6549 10.454 10.417s-4.6894 10.417-10.454 10.417c-5.7649 0-10.454-4.6548-10.454-10.417z" clip-rule="evenodd" fill="#fff" fill-rule="evenodd"/>
</svg>

<svg width="50" height="50" viewBox="0 0 50 50" fill="none" xmlns="http://www.w3.org/2000/svg">
    <path fill-rule="evenodd" clip-rule="evenodd" d="M25 4.16667C13.4941 4.16667 4.16667 13.4941 4.16667 25C4.16667 30.3571 6.18698 35.2412 9.51167 38.934C11.2503 35.605 14.734 33.3333 18.75 33.3333H31.25C35.266 33.3333 38.7496 35.605 40.4883 38.934C43.8129 35.2412 45.8333 30.3571 45.8333 25C45.8333 13.4941 36.5058 4.16667 25 4.16667ZM37.2154 41.8783C36.4206 39.3415 34.0492 37.5 31.25 37.5H18.75C15.9509 37.5 13.5795 39.3415 12.7846 41.8783C16.2166 44.3671 20.4347 45.8333 25 45.8333C29.5652 45.8333 33.7833 44.3671 37.2154 41.8783ZM0 25C0 11.1929 11.1929 0 25 0C38.8071 0 50 11.1929 50 25C50 32.7956 46.4296 39.759 40.8425 44.3404C36.5304 47.8762 31.0104 50 25 50C18.9895 50 13.4695 47.8762 9.15752 44.3404C3.5705 39.759 0 32.7956 0 25ZM25 14.5833C21.5187 14.5833 18.7125 17.3904 18.7125 20.8333C18.7125 24.2762 21.5187 27.0833 25 27.0833C28.4812 27.0833 31.2875 24.2762 31.2875 20.8333C31.2875 17.3904 28.4812 14.5833 25 14.5833ZM14.5459 20.8333C14.5459 15.0716 19.2351 10.4167 25 10.4167C30.7648 10.4167 35.4542 15.0716 35.4542 20.8333C35.4542 26.595 30.7648 31.25 25 31.25C19.2351 31.25 14.5459 26.5952 14.5459 20.8333Z" fill="white"/>
</svg>
